X:21
T: Maighre an chúil órbhui, S. 72
N: I0520
O: Irland
S: O BOYLE, Sean: 25 Irish Folksongs, Dublin 1976]
N: Verzierungen weggelassen
R: ???]
M: 3/4
L: 1/8
K: E
B,=D | E2E2=DB, | =G2A2GA | B=cBAF=G | E2E2
B,=D | E2E2=DB, | =G2A2GA | B=cBAF=G | E2E2
B=d | eee=dBc | =d2edBA | FFE3F | E2=D2
B,D | E2E2=DB, | =G2A2GA | B=cBAF=G | E2E2

